!!!COM: Johanna Kinkel
!!!CNT: Deutsch
!!!TXO: Deutsch
!!!OTL: Abreise
!!!LYR: Geibel
!!!OPR: 6 Geditche von E. Geibel
!!!OPS: Op. 8
!!!ONM: No. 6
!!!ENC: Ben Fuhrman
!!!YOR: Johanna Kinkel: Lieder, volume 1 Poetry by Geibel and Goethe
!!!YOR: Bryn Mawr, Fildegard Publishing CO, 2000
!!!ODT: 1838
!!NB: Only vocal melody encoded.
!!NB: First instance of melodic material only encoded.
!!created: 2/23/10 2:20PM
!!proofed and posted: 2/23/10 2:20PM
**kern	**silbe
*clef G2	*
*k[b-e-]	*
*M6/8	*
*MM[Allegretto grazioso]	*
{16d	{Es
16e-	|
=1	=1
4f	kommt
16g	ein
16a	|
4b-	Schiff
16b-	ge-
16cc	|
=2	=2
(4dd	-zo-
8cc)	|
8b-}	-gen,}
8r	.
{8b-	{roth
=3	=3
8.cc-	glu2-
16b-	-hen
8b-	die
8.ee-	See-
16b-	-gel
8b-	im
=4	=4
8.b-	A
16ccn	|
8b-	-bend
4a}	schein,}
{8f	{der
=5	=5
4e-	Wind
8dd	kommt
8dd	ko-
8cc	-send
8a	ge-
=6	=6
8.a	-flo-
16b-	|
16cc	|
16b-	|
4f}	-gen,}
{8f	{und
=7	=7
4g	lei-
8a	-se
8bn	pla2t
8cc	schern
8dd	die
=8	=8
8.ee-	Wo
16dd	|
16ee-	|
16dd	|
4cc}	-gem,}
{8f	{und
=9	=9
(8dd	Ho2r-
8a)	|
8b-	-ner-
(8dd	-ton
8cc)	|
8a	schallt
=10	=10
4b-	drein,
8dd	tra-
4ff}	-rah,}
{8b-	{und
=11	=11
(8dd	Ho2r-
8a)	|
8b-	-ner-
4dd	-ton
8cc	schallt
=12	=12
4b-}	drein.}
8r	.
4r	.
{8f	{Tra-
=13	=13
[4.cc	-rah,
4cc]	|
8ff	tra-
=14	=14
[4.dd	-rah,
4dd]	|
8g	tra-
=15	=15
4ee-	-rah,
8dd	tra-
4cc	-rah,
8dd	tra-
=16	=16
[2.b-	-rah!
=17	=17
2.b-_	|
=18	=18
4.b-_	|
4.b-]}	|}
==	==
*-	*-
